Adwaita++/status/symbolic/media-playlist-shuffle-rtl-symbolic.svg

<svg height="16" width="16" xmlns="http://www.w3.org/2000/svg">
  <g fill="#474747">
    <path d="m3 13v-2h4c.554 0 1-.45 1-1v-4c0-1.66 1.338-3 3-3h4v2h-4c-.554 0-1 .45-1 1v4c0 1.66-1.338 3-3 3z"/>
    <path d="m3 3v2h3.623c.169-.7298.5232-1.3844 1.002-1.9336-.2019-.0426-.4101-.0664-.625-.0664zm8.377 8c-.169.73-.523 1.384-1.002 1.934.202.042.41.066.625.066h4v-2z"/>
    <path d="m4 1v6l-4-3z"/>
    <path d="m4 9v6l-4-3z"/>
  </g>
</svg>

<svg xmlns="http://www.w3.org/2000/svg" width="16" height="16" version="1.1">
 <path style="fill:#474747" d="M 3,13 V 11 H 7 C 7.554,11 8,10.55 8,10 V 6 C 8,4.34 9.338,3 11,3 H 15 V 5 H 11 C 10.446,5 10,5.45 10,6 V 10 C 10,11.66 8.662,13 7,13 Z"/>
 <path style="fill:#474747" d="M 3,3 V 5 H 6.623 C 6.792,4.2702 7.1462,3.6156 7.625,3.0664 7.4231,3.0238 7.2149,3 7,3 Z M 11.377,11 C 11.208,11.73 10.854,12.384 10.375,12.934 10.577,12.976 10.785,13 11,13 H 15 V 11 Z"/>
 <path style="fill:#474747" d="M 4,1 V 7 L 0,4 Z"/>
 <path style="fill:#474747" d="M 4,9 V 15 L 0,12 Z"/>
</svg>
